src/assets/icons/months,fancy,may-5.svg

<svg width="48" height="48" viewBox="0 0 48 48" fill="none" xmlns="http://www.w3.org/2000/svg">
<rect opacity="0.2" x="4" y="6" width="40" height="40" rx="4" fill="black"/>
<path d="M6.50355 24.3636V36H8.88991V28.3977H8.98651L11.9979 35.9432H13.6229L16.6342 28.4261H16.7308V36H19.1172V24.3636H16.0831L12.8786 32.1818H12.7422L9.53764 24.3636H6.50355ZM23.1499 36L24.0135 33.3466H28.2124L29.076 36H31.7124L27.701 24.3636H24.5305L20.5135 36H23.1499ZM24.6385 31.4261L26.0703 27.0227H26.1612L27.593 31.4261H24.6385ZM31.2436 24.3636L35.4879 31.8864V36H37.9311V31.8864L42.1754 24.3636H39.4197L36.7663 29.375H36.6527L33.9993 24.3636H31.2436Z" fill="black"/>
<g opacity="0.4">
<path d="M10 4C10 2.89543 10.8954 2 12 2C13.1046 2 14 2.89543 14 4V8C14 9.10457 13.1046 10 12 10C10.8954 10 10 9.10457 10 8V4Z" fill="black"/>
<path d="M34 4C34 2.89543 34.8954 2 36 2C37.1046 2 38 2.89543 38 4V8C38 9.10457 37.1046 10 36 10C34.8954 10 34 9.10457 34 8V4Z" fill="black"/>
</g>
<path fill-rule="evenodd" clip-rule="evenodd" d="M10 6.00869C7.52043 6.04456 6.11466 6.22849 5.17157 7.17157C4 8.34315 4 10.2288 4 14V16H44V14C44 10.2288 44 8.34315 42.8284 7.17157C41.8853 6.22849 40.4796 6.04456 38 6.00869V8C38 9.10457 37.1046 10 36 10C34.8954 10 34 9.10457 34 8V6H14V8C14 9.10457 13.1046 10 12 10C10.8954 10 10 9.10457 10 8V6.00869Z" fill="black"/>
</svg>

<svg xmlns="http://www.w3.org/2000/svg" width="48" height="48" fill="none" viewBox="0 0 48 48">
  <rect width="40" height="40" x="4" y="6" fill="#000" opacity=".2" rx="4"/>
  <path fill="#000" d="M6.504 24.364V36H8.89v-7.602h.097l3.01 7.545h1.626l3.011-7.517h.097V36h2.386V24.364h-3.034l-3.204 7.818h-.137l-3.204-7.818H6.504zM23.15 36l.864-2.653h4.198L29.076 36h2.636l-4.011-11.636h-3.17L20.514 36h2.636zm1.489-4.574l1.431-4.403h.091l1.432 4.403h-2.954zm6.605-7.062l4.244 7.522V36h2.443v-4.114l4.244-7.522H39.42l-2.654 5.011h-.113l-2.654-5.011h-2.755z"/>
  <g opacity=".4">
    <path fill="#000" d="M10 4a2 2 0 114 0v4a2 2 0 11-4 0V4zM34 4a2 2 0 114 0v4a2 2 0 11-4 0V4z"/>
  </g>
  <path fill="#000" fill-rule="evenodd" d="M10 6.009c-2.48.036-3.885.22-4.828 1.163C4 8.343 4 10.229 4 14v2h40v-2c0-3.771 0-5.657-1.172-6.828-.943-.944-2.348-1.127-4.828-1.163V8a2 2 0 11-4 0V6H14v2a2 2 0 11-4 0V6.009z" clip-rule="evenodd"/>
</svg>
